assets/react.svg

<svg width="106" height="100" viewBox="0 0 106 100" fill="none" xmlns="http://www.w3.org/2000/svg">
<path d="M0 49.5504C0 57.9044 7.80178 65.7033 20.1019 70.0992C17.6457 83.0286 19.6617 93.4496 26.3955 97.5103C33.3171 101.684 43.6286 98.7949 53.4155 89.8497C62.9556 98.4337 72.5975 101.812 79.325 97.7398C86.2399 93.5542 88.3432 82.4263 85.819 69.0933C98.6303 64.6644 105.797 58.0144 105.797 49.5504C105.797 41.39 97.9803 34.3302 85.846 29.9624C88.5634 16.0784 86.2609 5.91019 79.2484 1.68185C72.4877 -2.39453 62.7338 1.15845 53.0534 9.96729C42.9826 0.617401 33.325 -2.23724 26.3193 2.00343C19.5651 6.09141 17.6378 16.7018 20.1019 29.8706C8.21711 34.2034 0 41.4226 0 49.5504Z" fill="white"/>
<path d="M83.2748 34.2996C82.3001 33.9488 81.2901 33.6169 80.2502 33.303C80.4212 32.5737 80.578 31.8537 80.7175 31.146C83.007 19.5254 81.5101 10.1638 76.3983 7.08156C71.4968 4.12609 63.4807 7.20764 55.3849 14.5745C54.6064 15.2829 53.8257 16.0329 53.0453 16.819C52.5254 16.2989 52.0063 15.7963 51.4885 15.3156C43.0038 7.43846 34.4992 4.11892 29.3925 7.21009C24.4956 10.1741 23.0455 18.9749 25.1064 29.9879C25.3054 31.0516 25.5381 32.1379 25.8011 33.2424C24.5975 33.5996 23.4355 33.9805 22.3237 34.3857C12.3763 38.0119 6.02344 43.6952 6.02344 49.5902C6.02344 55.6786 12.8432 61.7854 23.2042 65.4883C24.0218 65.7805 24.8703 66.0568 25.7446 66.3191C25.4608 67.5136 25.2139 68.6842 25.0067 69.8259C23.0416 80.6477 24.5762 89.2406 29.46 92.1859C34.5046 95.2276 42.9707 92.1011 51.2145 84.5663C51.8661 83.9707 52.52 83.3391 53.1751 82.677C54.0242 83.532 54.8719 84.3411 55.7152 85.1C63.7003 92.2849 71.5869 95.1862 76.4662 92.2326C81.5057 89.1822 83.1435 79.9514 81.0172 68.7206C80.8548 67.8628 80.6658 66.9865 80.4536 66.0947C81.0481 65.9109 81.6318 65.7212 82.2009 65.5239C92.9722 61.7924 99.9803 55.7599 99.9803 49.5902C99.9803 43.6738 93.4225 37.9523 83.2748 34.2996Z" fill="#53C1DE"/>
<path d="M80.9386 61.5405C80.4249 61.7183 79.8977 61.8902 79.3605 62.0569C78.1715 58.1207 76.5666 53.9352 74.6027 49.6109C76.4768 45.3895 78.0196 41.2575 79.1754 37.3469C80.1365 37.6378 81.0694 37.9445 81.9683 38.2682C90.6629 41.3978 95.9665 46.025 95.9665 49.5904C95.9665 53.3882 90.2388 58.3183 80.9386 61.5405ZM77.0797 69.5358C78.0199 74.502 78.1542 78.9919 77.5314 82.5019C76.9718 85.6558 75.8465 87.7586 74.455 88.6008C71.494 90.3929 65.1619 88.0634 58.3329 81.9189C57.55 81.2145 56.7615 80.4624 55.9704 79.6664C58.6179 76.6389 61.2638 73.1193 63.8462 69.2104C68.3883 68.789 72.6796 68.1 76.5711 67.1594C76.7628 67.9678 76.933 68.7607 77.0797 69.5358ZM38.0555 88.2911C35.1625 89.3594 32.8584 89.39 31.4656 88.5503C28.502 86.7629 27.2699 79.8636 28.9505 70.6088C29.143 69.549 29.3721 68.4602 29.6362 67.3474C33.4851 68.2373 37.7449 68.8776 42.2979 69.2636C44.8977 73.0885 47.62 76.6042 50.3635 79.6826C49.7641 80.2877 49.167 80.8637 48.5733 81.4065C44.9279 84.7383 41.2749 87.1022 38.0555 88.2911ZM24.5024 61.5172C19.9209 59.8799 16.1374 57.7519 13.544 55.4298C11.2137 53.3431 10.0371 51.2714 10.0371 49.5904C10.0371 46.0131 15.1378 41.4503 23.6449 38.3489C24.6771 37.9726 25.7577 37.618 26.879 37.2849C28.0547 41.2838 29.597 45.4647 31.4583 49.6925C29.573 53.9831 28.0088 58.2307 26.8215 62.2765C26.0221 62.0362 25.2476 61.7834 24.5024 61.5172ZM29.0455 29.1821C27.2797 19.7465 28.4524 12.6286 31.4034 10.8425C34.5467 8.93977 41.4975 11.6527 48.8233 18.4542C49.2916 18.889 49.7617 19.344 50.2332 19.8147C47.5033 22.8797 44.8059 26.369 42.2292 30.1714C37.8103 30.5996 33.5804 31.2875 29.6914 32.2088C29.4469 31.1804 29.2303 30.17 29.0455 29.1821ZM69.5742 39.6461C68.6445 37.967 67.6901 36.3276 66.7171 34.733C69.7149 35.1293 72.5871 35.6553 75.2844 36.299C74.4746 39.0126 73.4653 41.8498 72.2772 44.7584C71.4249 43.0666 70.5235 41.3607 69.5742 39.6461ZM53.0467 22.8141C54.8981 24.9113 56.7521 27.2528 58.5757 29.7933C56.7381 29.7025 54.8777 29.6553 53.0019 29.6553C51.1438 29.6553 49.2971 29.7015 47.4709 29.7907C49.2963 27.2738 51.1664 24.9354 53.0467 22.8141ZM36.4133 39.6752C35.4846 41.359 34.5999 43.0556 33.761 44.7553C32.5922 41.8568 31.5922 39.0066 30.7754 36.2545C33.4562 35.6273 36.3148 35.1144 39.2936 34.7257C38.3068 36.335 37.3445 37.9864 36.4133 39.6748V39.6752ZM39.3794 64.7546C36.3018 64.3956 33.4001 63.9091 30.7201 63.2991C31.5499 60.4979 32.5719 57.5868 33.7656 54.626C34.6066 56.3245 35.4948 58.0218 36.4292 59.7092H36.4294C37.3812 61.4284 38.3672 63.1124 39.3794 64.7546ZM53.1577 76.6627C51.2554 74.5165 49.3578 72.1425 47.5046 69.5888C49.3037 69.6626 51.1378 69.7004 53.0019 69.7004C54.917 69.7004 56.8102 69.6553 58.6736 69.5685C56.8439 72.1682 54.9966 74.5459 53.1577 76.6627ZM72.3155 54.4751C73.5713 57.4679 74.6299 60.3638 75.4705 63.1173C72.7463 63.7671 69.805 64.2905 66.706 64.6794C67.6814 63.0632 68.6442 61.3957 69.5903 59.6804C70.5474 57.945 71.4562 56.207 72.3155 54.4751ZM66.1135 57.5837C64.6448 60.2464 63.1369 62.7883 61.6061 65.1877C58.8181 65.3962 55.9376 65.5035 53.0019 65.5035C50.078 65.5035 47.2339 65.4086 44.4951 65.2227C42.9026 62.7918 41.362 60.2424 39.9027 57.6066H39.903C38.4475 54.978 37.1079 52.3271 35.894 49.6912C37.1075 47.049 38.4436 44.3952 39.8908 41.7713L39.8905 41.7718C41.3414 39.1409 42.8685 36.6039 44.4463 34.1883C47.2406 33.9674 50.1059 33.8522 53.0017 33.8522H53.0019C55.9107 33.8522 58.7798 33.9683 61.5732 34.1911C63.1269 36.5891 64.6436 39.1178 66.1003 41.7491C67.5735 44.4099 68.9268 47.0461 70.1507 49.6315C68.9305 52.2614 67.5802 54.9241 66.1135 57.5837ZM74.3935 10.7177C77.5398 12.6148 78.7633 20.2661 76.7865 30.2992C76.6604 30.9394 76.5184 31.5915 76.3642 32.2523C72.4662 31.3119 68.2333 30.612 63.8015 30.1773C61.2198 26.3331 58.5444 22.8384 55.859 19.8128C56.581 19.0866 57.302 18.3941 58.02 17.7406C64.9565 11.4287 71.4396 8.93662 74.3935 10.7177Z" fill="white"/>
<path d="M53.0033 40.8179C57.6369 40.8179 61.3933 44.7454 61.3933 49.5905C61.3933 54.4355 57.6369 58.3632 53.0033 58.3632C48.3697 58.3632 44.6133 54.4355 44.6133 49.5905C44.6133 44.7454 48.3697 40.8179 53.0033 40.8179Z" fill="#53C1DE"/>
</svg>

<svg width="106" height="100" fill="none" xmlns="http://www.w3.org/2000/svg"><path d="M0 49.55c0 8.354 7.802 16.153 20.102 20.55-2.456 12.929-.44 23.35 6.293 27.41 6.922 4.174 17.234 1.285 27.02-7.66 9.54 8.584 19.182 11.962 25.91 7.89 6.915-4.186 9.018-15.314 6.494-28.647 12.811-4.429 19.978-11.079 19.978-19.543 0-8.16-7.817-15.22-19.951-19.588 2.717-13.884.415-24.052-6.598-28.28-6.76-4.077-16.514-.524-26.195 8.285C42.983.617 33.325-2.237 26.32 2.003c-6.754 4.088-8.681 14.699-6.217 27.868C8.217 34.203 0 41.423 0 49.55Z" fill="#fff"/><path d="M83.275 34.3a60.965 60.965 0 0 0-3.025-.997c.171-.73.328-1.45.468-2.157 2.289-11.62.792-20.982-4.32-24.064-4.901-2.956-12.917.126-21.013 7.493a63.991 63.991 0 0 0-2.34 2.244 58.076 58.076 0 0 0-1.556-1.503C43.004 7.438 34.499 4.119 29.393 7.21c-4.897 2.964-6.348 11.765-4.287 22.778.2 1.064.432 2.15.695 3.254a60.139 60.139 0 0 0-3.477 1.144c-9.948 3.626-16.3 9.31-16.3 15.204 0 6.089 6.82 12.195 17.18 15.898a51.72 51.72 0 0 0 2.54.831 66.795 66.795 0 0 0-.737 3.507c-1.965 10.822-.43 19.415 4.453 22.36 5.045 3.042 13.51-.085 21.755-7.62a54.361 54.361 0 0 0 1.96-1.889 63.55 63.55 0 0 0 2.54 2.423c7.985 7.185 15.872 10.086 20.751 7.133 5.04-3.05 6.678-12.282 4.551-23.512a57.857 57.857 0 0 0-.563-2.626 54.358 54.358 0 0 0 1.747-.571c10.771-3.732 17.78-9.764 17.78-15.934 0-5.916-6.558-11.638-16.706-15.29Z" fill="#53C1DE"/><path d="M80.939 61.54a52.18 52.18 0 0 1-1.578.517c-1.19-3.936-2.794-8.122-4.758-12.446 1.874-4.221 3.417-8.353 4.572-12.264.962.29 1.894.597 2.793.921 8.695 3.13 13.998 7.757 13.998 11.322 0 3.798-5.727 8.728-15.027 11.95Zm-3.86 7.996c.94 4.966 1.075 9.456.452 12.966-.56 3.154-1.684 5.257-3.076 6.099-2.961 1.792-9.293-.538-16.122-6.682a58.57 58.57 0 0 1-2.363-2.253c2.648-3.027 5.294-6.547 7.876-10.456 4.542-.421 8.834-1.11 12.725-2.05.192.808.362 1.6.509 2.376ZM38.057 88.29c-2.893 1.068-5.198 1.099-6.59.26-2.964-1.788-4.196-8.687-2.515-17.942.192-1.06.421-2.149.685-3.262 3.85.89 8.109 1.53 12.662 1.917 2.6 3.825 5.322 7.34 8.066 10.419a50.31 50.31 0 0 1-1.79 1.723c-3.646 3.332-7.3 5.696-10.518 6.885ZM24.502 61.517c-4.581-1.637-8.365-3.765-10.958-6.087-2.33-2.087-3.507-4.159-3.507-5.84 0-3.577 5.1-8.14 13.608-11.241a56.093 56.093 0 0 1 3.234-1.064c1.176 3.999 2.718 8.18 4.58 12.408-1.886 4.29-3.45 8.538-4.637 12.584a47.85 47.85 0 0 1-2.32-.76Zm4.544-32.335c-1.766-9.435-.594-16.553 2.357-18.34 3.144-1.902 10.095.81 17.42 7.612.469.435.939.89 1.41 1.36-2.73 3.066-5.427 6.555-8.004 10.357-4.419.429-8.649 1.117-12.538 2.038a63.939 63.939 0 0 1-.645-3.027Zm40.528 10.464a134.75 134.75 0 0 0-2.857-4.913c2.998.396 5.87.922 8.567 1.566a92.281 92.281 0 0 1-3.007 8.46 148.446 148.446 0 0 0-2.703-5.113ZM53.047 22.814a88.945 88.945 0 0 1 5.529 6.98 112.993 112.993 0 0 0-11.105-.003 91.729 91.729 0 0 1 5.576-6.977ZM36.413 39.675a125.9 125.9 0 0 0-2.652 5.08 95.423 95.423 0 0 1-2.986-8.5 87.042 87.042 0 0 1 8.519-1.53 124.44 124.44 0 0 0-2.88 4.95Zm2.966 25.08c-3.077-.36-5.979-.846-8.659-1.456a96.974 96.974 0 0 1 3.046-8.673 125.128 125.128 0 0 0 5.614 10.129Zm13.779 11.908a93.365 93.365 0 0 1-5.653-7.074c1.799.074 3.633.111 5.497.111 1.915 0 3.808-.045 5.672-.132-1.83 2.6-3.677 4.978-5.516 7.095Zm19.157-22.188c1.256 2.993 2.315 5.889 3.156 8.642-2.725.65-5.666 1.173-8.765 1.562a148.23 148.23 0 0 0 2.884-4.999 135.358 135.358 0 0 0 2.725-5.205Zm-6.201 3.109a138.775 138.775 0 0 1-4.508 7.604c-2.788.208-5.668.316-8.604.316-2.924 0-5.768-.095-8.507-.281a119.95 119.95 0 0 1-8.601-15.532 120.989 120.989 0 0 1 3.997-7.92 118.8 118.8 0 0 1 4.555-7.583c2.795-.22 5.66-.336 8.556-.336 2.909 0 5.778.116 8.571.34a127.408 127.408 0 0 1 4.527 7.557 139.791 139.791 0 0 1 4.05 7.883 128.3 128.3 0 0 1-4.037 7.952Zm8.28-46.866c3.146 1.897 4.37 9.548 2.392 19.581-.126.64-.268 1.293-.422 1.953-3.898-.94-8.13-1.64-12.563-2.075-2.581-3.844-5.257-7.339-7.942-10.364a60.113 60.113 0 0 1 2.161-2.072c6.937-6.312 13.42-8.804 16.373-7.023Z" fill="#fff"/><path d="M53.003 40.818c4.634 0 8.39 3.927 8.39 8.773 0 4.844-3.756 8.772-8.39 8.772-4.633 0-8.39-3.928-8.39-8.773s3.757-8.772 8.39-8.772Z" fill="#53C1DE"/></svg>
